!!!!SEGMENT: pl-wumfc--n50547_moniuszko-stanislaw--rada-w-naszych-gorach-dziewczat-moc.krn
!!!cenid: 18xx:4084
!!!COM: Moniuszko, Stanisław
!!!COM-rismID: pe30008351
!!!CDT: 1819/05/05-1872/06/04
!!!CNT: Polish
!!!OTL: Rada/W naszych górach dziewcząt moc
!!!PDT:
!!!AGN:
!!!SMS-siglum: PL-Wumfc
!!!SMS-shelfmark: N50547
!!!SMS-shelfwork: W
!!!SMS-variant:
!!!SMS-altvar:
!!!NIFC-rismSourceID: 1001171531
!!!NIFC-rismChildID: 1001171531
!!!NIFC-islandoraID: pl-wumfc:6819
!!!URL-pdf-islandora: https://repozytorium.nifc.pl/islandora/object/pl-wumfc%3A6819/datastream/PDF/view
!!!URL-scan: https://polish.musicsources.pl/pl/lokalizacje/galeria/druki-muzyczne/12565-rada @EN{Scan on Polish Music Sources Website} @PL{Skany w portalu Dziedzictwo Muzyki Polskiej w otwartym dostępie}
!!!ONB-nifc:
!!!AIN: 1 piano 1 soprn
!!!key: e
**kern	**kern	**dynam	**kern	**text	**text	**text	**dynam
*part2	*part2	*part2	*part1	*part1	*part1	*part1	*part1
*staff3	*staff2	*	*staff1	*staff1	*staff1	*staff1	*
*I"Fortepian.	*I"Fortepian.	*	*I"Śpiew.	*v:1	*v:2	*v:3	*
*>[A,B,B,B]	*>[A,B,B,B]	*	*>[A,B,B,B]	*	*	*	*
*>A	*>A	*	*>A	*	*	*	*
*Ipiano	*Ipiano	*	*Isoprn	*	*	*	*
*ICklav	*ICklav	*	*ICvox	*	*	*	*
*IGacmp	*IGacmp	*	*IGsolo	*	*	*	*
*clefF4	*clefG2	*	*clefG2	*	*	*	*
*k[f#]	*k[f#]	*	*k[f#]	*	*	*	*
*e:	*e:	*	*e:	*	*	*	*
*M2/4	*M2/4	*	*M2/4	*	*	*	*
=1	=1	=1	=1	=1	=1	=1	=1
!	!	!	!LO:TX:i:a:t=Allegretto.	!	!	!	!
2r	(8.ee^\L	p	2r	.	.	.	.
.	16b\K	.	.	.	.	.	.
.	8a\	.	.	.	.	.	.
.	8g\J)	.	.	.	.	.	.
=2	=2	=2	=2	=2	=2	=2	=2
*	*^	*	*	*	*	*	*
(<4AA/	8f#/L	4e 4cn\	sf >	2r;	.	.	.	.
.	8qa/	.	.	.	.	.	.	.
.	8g/J	.	.	.	.	.	.	.
4AA#X;/	4f#;/	4e 4c#X\	]]	.	.	.	.	.
*	*v	*v	*	*	*	*	*	*
=3!|:	=3!|:	=3!|:	=3!|:	=3!|:	=3!|:	=3!|:	=3!|:
*>B	*>B	*	*>B	*	*	*	*
!	!	!	!	!	!	!	!LO:DY:a
8BB\)	8r	.	8.B/	W na-	Kto	Ej	p
8r	8f# 8d#X 8B< 8A</	p	.	.	.	.	.
.	.	.	16d#X/	-szych	się	nie	.
8BB\	8r	.	8f#/	gó-	że-	zdra-	.
8r	8f# 8d# 8B< 8A</	.	8a/	-rach	-ni,	-dzi	.
=4	=4	=4	=4	=4	=4	=4	=4
*^	*	*	*	*	*	*	*
8EE'\L	4ryy	8gL 8B< 8G</	.	8g/	dziew-	znam	wier-	.
8BB'\J	.	8f#J 8B< 8A</	.	8f#/	-cząt	to	-ny	.
4E\	8rc	4e^/	.	4e/	moc,	znam,	koń,	.
.	8B 8G/	.	.	.	.	.	.	.
*v	*v	*	*	*	*	*	*	*
=5	=5	=5	=5	=5	=5	=5	=5
8F#\	8r	.	8.d/	a	li-	na	.
8r	8d 8c 8A</	.	.	.	.	.	.
.	.	.	16f#/	w ich	-chej	nim	.
8D\	8r	.	8a/	o-	do-	w wo-	.
8r	8a 8f# 8d 8c/	.	8cc\	-czach	-li	-dy	.
=6	=6	=6	=6	=6	=6	=6	=6
.	.	.	8qcc/	.	.	.	.
(4G\	8r	.	8.b\	gwia-	szu-	o-	.
.	8b 8g 8d 8B/	.	.	.	.	.	.
.	.	.	16a#X/	-zdy,	-ka	-gień	.
4F#\)	8r	.	4b\	noc.	sam.	goń;	.
.	8b 8a 8d#X 8B/	.	.	.	.	.	.
!!LO:LB:g=original
=7	=7	=7	=7	=7	=7	=7	=7
*^	*	*	*	*	*	*	*
!LO:N:vis=2	!	!	!	!	!	!	!	!LO:DY:a
8EE/L	2EE\	8gL 8e'/	.	8.ee\	Do-	On	le-	p
8BB'</	.	16r	.	.	.	.	.	.
.	.	(16bJk 16d/	.	16b\	-brzeć	na	-ci	.
8E'</	.	8eL 8c'/)	.	8a/	z nié-	bo-	bło-	.
8BB'</J	.	8gJ 8B'/	.	8g/	-mi	-je	-nią	.
=8	=8	=8	=8	=8	=8	=8	=8	=8
!LO:N:vis=2	!	!	!	!	!	!	!	!
8EE/L	2EE\	8f#L 8A'/	.	8.f#/	zu-	nie	jak	.
8BB'</	.	8f#J 8d#X 8B 8A/	.	.	.	.	.	.
.	.	.	.	32a/LLL	-chu	po-	wiatr	.
.	.	.	.	32g/JJJ	.	.	.	.
8F#'</	.	8r	.	8f#/	mło-	-le-	chy-	.
8BB'</J	.	8f# 8d# 8B 8A/	.	8b\	-dy,	-ci,	-ży	.
=9	=9	=9	=9	=9	=9	=9	=9	=9
!LO:N:vis=2	!	!	!	!	!	!	!	!
8EE/L	2EE\	8g: 8e: 8B: 8G:/	.	8.ee\	a-	bo	i	.
8BB'</	.	16r	.	.	.	.	.	.
.	.	(16b 16d/	.	16b\	-le	go	od-	.
.	.	.	.	8qb/	.	.	.	.
8E'</	.	8eL 8c/)	.	8a/	lep-	zmię-	-leg-	.
8BB'</J	.	8gJ 8B'/	.	8g/	-sze	-kczy	-łość	.
=10	=10	=10	=10	=10	=10	=10	=10	=10
!LO:N:vis=2	!	!	!	!	!	!	!	!
8EE/L	2EE\	8f#L 8A/	.	8.f#/	dni	głos	wnet	.
8BB'</	.	8f#J 8d#X 8B 8A/	.	.	.	.	.	.
.	.	.	.	8qa/	.	.	.	.
.	.	.	.	16g/	swo-	ko-	przy-	.
8F#'</	.	8r	.	8f#/	-bo-	-bie-	-bli-	.
8BB'</J	.	8f# 8d# 8B 8A/	.	8B/	-dy;	-cy.	-ży.	.
*v	*v	*	*	*	*	*	*	*
=11	=11	=11	=11	=11	=11	=11	=11
(4E\	8eL 8B 8G/	<	8.e/	Więc	.	.	.
.	8gJ 8e 8B/	.	.	.	.	.	.
.	.	.	32f#/LLL	nie	.	.	.
.	.	.	32g/JJJ	.	.	.	.
4Dn\	8r	.	8a/	żeń	.	.	.
.	8a 8f# 8dn 8c/	.	8d/	się,	.	.	.
=12	=12	=12	=12	=12	=12	=12	=12
*^	*	*	*	*	*	*	*
8GG/L)	4GG\	8gL 8B'/	.	8g/	dni	.	.	.
8G'/J	.	8ccJ 8g 8e'/	[	8ee\	nie	.	.	.
4Fn;/ 4FFn^/	4ryy	4b 4g 4d^;/	.	4dd^;\	gub,	.	.	.
*v	*v	*	*	*	*	*	*	*
!!LO:LB:g=original
=13	=13	=13	=13	=13	=13	=13	=13
*	*^	*	*	*	*	*	*
!	!	!	!	!	!	!	!	!LO:DY:a
4E 4EE/	(>4cc 4g/ 4c/	4ryy	fp	8cc\	słu-	.	.	fp
!	!	!	!	!LO:TX:i:a:t=rallent.	!	!	!	!
.	.	.	.	16b/LL	-chaj	.	.	.
.	.	.	.	16a/JJ	.	.	.	.
!	!LO:TX:i:b:t=rallent.	!	!	!	!	!	!	!
4C/	8g/L	4e\	.	8g/	ra-	.	.	.
.	8a/J)	.	.	8a/	-dy	.	.	.
*	*v	*v	*	*	*	*	*	*
=14	=14	=14	=14	=14	=14	=14	=14
4.BB;</	4.b 4.f# 4.d#X;/	.	4.b;\	mej:	.	.	.
8r	8r	.	8r	.	.	.	.
=15||	=15||	=15||	=15||	=15||	=15||	=15||	=15||
*k[f#c#g#d#]	*k[f#c#g#d#]	*	*k[f#c#g#d#]	*	*	*	*
*^	*	*	*	*	*	*	*
!LO:N:vis=2	!	!LO:TX:i:a:t=animato.	!	!LO:TX:i:a:t=animato.	!	!	!	!
8EE/L	2EE\	8ee:L 8b: 8g#: 8e^:/	.	8.ee^\	a	.	.	.
8BB'</	.	16r	.	.	.	.	.	.
.	.	(16bK 16d#/	.	16b\	ru-	.	.	.
8E'</	.	8a 8c#/)	.	8a/	-ma-	.	.	.
8BB'</J	.	8g#J 8e 8B'/	.	8g#/	-ka	.	.	.
=16	=16	=16	=16	=16	=16	=16	=16	=16
!LO:N:vis=2	!	!	!	!	!	!	!	!
8EE/	2EE\	8f# 8A/	.	8f#/	ra-	.	.	.
4BB\	.	(>16d#LL 16F#</	.	16d#/LL	-czej	.	.	.
.	.	16c#/JJ	.	16c#/JJ	.	.	.	.
.	.	4B^/)	.	4B/	kup,	.	.	.
8BB\	.	.	.	.	.	.	.	.
*v	*v	*	*	*	*	*	*	*
=17	=17	=17	=17	=17	=17	=17	=17
8EL 8EE/	8r	f	8.e/	bę-	.	.	.
8Dn 8DDn/	8g#L 8e 8B/	<	.	.	.	.	.
.	.	.	32f#/LLL	-dzie	.	.	.
.	.	.	32g#/JJJ	.	.	.	.
8Cn 8CCn/	8a 8e 8A/	.	8a/	wal-	.	.	.
8BBJ 8BBB/	8gnJ 8e 8B/	[[	8b\	-czyć	.	.	.
=18	=18	=18	=18	=18	=18	=18	=18
2AA#X 2AAA#X;/	2f# 2e 2c#;/	sf	2cc#;\	lżej,	.	.	.
=19	=19	=19	=19	=19	=19	=19	=19
*^	*	*	*	*	*	*	*
!	!	!LO:TX:B:a:t=lento.	!	!LO:TX:B:a:t=lento.	!	!	!	!
[4BB/	4BB\	(>4g# 4e 4B^/	.	8.b\	bę-	.	.	.
.	.	.	.	32a/LLL	-dzie	.	.	.
.	.	.	.	32g#/JJJ	.	.	.	.
4BB\_	4BBB\	4f# 4d# 4B< 4A</	.	8f#/	wal-	.	.	.
.	.	.	.	8B/	-czyć	.	.	.
*v	*v	*	*	*	*	*	*	*
=20	=20	=20	=20	=20	=20	=20	=20
2BB] 2EE;<\	2e 2B< 2G#<;/)	.	2e;/	lżej.	.	.	.
=:|!	=:|!	=:|!	=:|!	=:|!	=:|!	=:|!	=:|!
*-	*-	*-	*-	*-	*-	*-	*-
!!!system-decoration: (p1){(p2)}
!!!ENC: Andrzej Gręziak
!!!END: 2022-08-19
!!!ENC: Kamil Watkowski
!!!END: 2022-09-24
!!!RDF**kern: > = above
!!!RDF**kern: < = below
!!!YEC: Copyright 2022 Narodowy Instytut Fryderyka Chopina (https://polishscores.org)
!!!YEM: License CC-BY-4.0 (https://creativecommons.org/licenses/by/4.0)
